X:114
T:My own Whim. JJo8.114
B:J.Johnson Choice Collection Vol 8 1758
Z:vmp.Simon Wilson 2013 www.village-music-project.org.uk
M:12/8
L:1/8
Q:3/8=120
K:A
|:a|ecd ecd ecde2a|fde fde fde fga[?]|ecd ecd ecd efg|aec ecAB3!fermata!A2:|
|:AFG AFG AFG ABc|dcB AGF ^EFG C2c[?]|dcB cfc dcB cFc|dcB cfB ABGF2a:|

